X:40
T:Cheisheire Hornpipe, A
T:Cheshire Hornpipe, A
M:3/2
L:1/4
Q:1/2=100
S:D.Wright, Extraordinary Collection, London 1713
Z:Pete Stewart, 2004 <www.hornpipemusic.co.uk>
K:C
"6/4 in book"e2d/e/f/d/e2 | Gc2ded/c/ | d/e/f/d/ e/f/g/e/ ed/c/ | c3GED/C/ ||
GEFDEC | G>E F/E/F/D/ C/D/E/F/ | GEFDEC | D/E/F/G/ AEFE/D/ ||
CcGF/G/EC | c>G F/G/AG/F/E/D/ | CcGF/G/EC | D/E/F/G/AEFE/D/ ||
G/c/e/c/ G/c/e/c/ f/e/d/c/ | G/c/e/c/ G/c/e/c/fe |\
G/c/e/c/ G/c/e/c/ f/e/d/c/ | GE/G/FD/F/EC ||
E/G/c/G/ E/G/c/G/ E/D/C | E/G/c/G/ E/G/c/G/FD |\
E/G/c/G/ E/G/c/G/ E/D/C | D/E/F/G/AEFD ||

